assets/images/sections/amazon-web-services-mailing/time-passing.svg

<svg width="41" height="41" viewBox="0 0 41 41" version="1.1" xmlns="http://www.w3.org/2000/svg" xmlns:xlink="http://www.w3.org/1999/xlink">
<title>time-passing</title>
<desc>Created using Figma</desc>
<g id="Canvas" transform="translate(-423 -6145)">
<g id="time-passing">
<g id="Shape">
<use xlink:href="#path0_fill" transform="translate(423.003 6145)" fill="#FFFFFF"/>
</g>
<g id="Shape">
<use xlink:href="#path1_fill" transform="translate(428.47 6150.47)" fill="#FFFFFF"/>
</g>
<g id="Shape">
<use xlink:href="#path2_fill" transform="translate(442.82 6152.52)" fill="#FFFFFF"/>
</g>
<g id="Shape">
<use xlink:href="#path3_fill" transform="translate(442.82 6175.75)" fill="#FFFFFF"/>
</g>
<g id="Shape">
<use xlink:href="#path4_fill" transform="translate(453.753 6164.82)" fill="#FFFFFF"/>
</g>
<g id="Shape">
<use xlink:href="#path5_fill" transform="translate(430.52 6164.82)" fill="#FFFFFF"/>
</g>
<g id="Shape">
<use xlink:href="#path6_fill" transform="translate(435.303 6157.98)" fill="#FFFFFF"/>
</g>
<g id="Shape">
<use xlink:href="#path7_fill" transform="translate(430.992 6180.71)" fill="#FFFFFF"/>
</g>
<g id="Shape">
<use xlink:href="#path8_fill" transform="translate(426.702 6176.33)" fill="#FFFFFF"/>
</g>
<g id="Shape">
<use xlink:href="#path9_fill" transform="translate(427.981 6177.94)" fill="#FFFFFF"/>
</g>
<g id="Shape">
<use xlink:href="#path10_fill" transform="translate(429.415 6179.4)" fill="#FFFFFF"/>
</g>
<g id="Shape">
<use xlink:href="#path11_fill" transform="translate(425.597 6174.61)" fill="#FFFFFF"/>
</g>
<g id="Shape">
<use xlink:href="#path12_fill" transform="translate(462.623 6165.58)" fill="#FFFFFF"/>
</g>
<g id="Shape">
<use xlink:href="#path13_fill" transform="translate(423.109 6166.86)" fill="#FFFFFF"/>
</g>
<g id="Shape">
<use xlink:href="#path14_fill" transform="translate(423.425 6168.89)" fill="#FFFFFF"/>
</g>
<g id="Shape">
<use xlink:href="#path15_fill" transform="translate(424.675 6172.78)" fill="#FFFFFF"/>
</g>
<g id="Shape">
<use xlink:href="#path16_fill" transform="translate(423.947 6170.87)" fill="#FFFFFF"/>
</g>
<g id="Shape">
<use xlink:href="#path17_fill" transform="translate(442.437 6184.63)" fill="#FFFFFF"/>
</g>
<g id="Shape">
<use xlink:href="#path18_fill" transform="translate(458.481 6176.95)" fill="#FFFFFF"/>
</g>
<g id="Shape">
<use xlink:href="#path19_fill" transform="translate(454.026 6181.15)" fill="#FFFFFF"/>
</g>
<g id="Shape">
<use xlink:href="#path20_fill" transform="translate(455.653 6179.9)" fill="#FFFFFF"/>
</g>
<g id="Shape">
<use xlink:href="#path21_fill" transform="translate(459.649 6175.27)" fill="#FFFFFF"/>
</g>
<g id="Shape">
<use xlink:href="#path22_fill" transform="translate(457.142 6178.5)" fill="#FFFFFF"/>
</g>
<g id="Shape">
<use xlink:href="#path23_fill" transform="translate(462.437 6167.62)" fill="#FFFFFF"/>
</g>
<g id="Shape">
<use xlink:href="#path24_fill" transform="translate(462.043 6169.63)" fill="#FFFFFF"/>
</g>
<g id="Shape">
<use xlink:href="#path25_fill" transform="translate(432.696 6181.85)" fill="#FFFFFF"/>
</g>
<g id="Shape">
<use xlink:href="#path26_fill" transform="translate(461.446 6171.59)" fill="#FFFFFF"/>
</g>
<g id="Shape">
<use xlink:href="#path27_fill" transform="translate(460.642 6173.47)" fill="#FFFFFF"/>
</g>
<g id="Shape">
<use xlink:href="#path28_fill" transform="translate(440.396 6184.48)" fill="#FFFFFF"/>
</g>
<g id="Shape">
<use xlink:href="#path29_fill" transform="translate(436.407 6183.57)" fill="#FFFFFF"/>
</g>
<g id="Shape">
<use xlink:href="#path30_fill" transform="translate(438.376 6184.13)" fill="#FFFFFF"/>
</g>
<g id="Shape">
<use xlink:href="#path31_fill" transform="translate(434.509 6182.8)" fill="#FFFFFF"/>
</g>
<g id="Shape">
<use xlink:href="#path32_fill" transform="translate(446.512 6184.29)" fill="#FFFFFF"/>
</g>
<g id="Shape">
<use xlink:href="#path33_fill" transform="translate(448.503 6183.8)" fill="#FFFFFF"/>
</g>
<g id="Shape">
<use xlink:href="#path34_fill" transform="translate(450.435 6183.11)" fill="#FFFFFF"/>
</g>
<g id="Shape">
<use xlink:href="#path35_fill" transform="translate(444.484 6184.56)" fill="#FFFFFF"/>
</g>
<g id="Shape">
<use xlink:href="#path36_fill" transform="translate(452.28 6182.22)" fill="#FFFFFF"/>
</g>
</g>
</g>
<defs>
<path id="path0_fill" d="M 0.683333 21.1833C 1.06053 21.1833 1.36667 20.8779 1.36667 20.5C 1.36667 9.95002 9.95002 1.36667 20.5 1.36667C 24.8235 1.36667 28.9583 2.81192 32.323 5.46667L 28.7 5.46667C 28.3228 5.46667 28.0167 5.77212 28.0167 6.15C 28.0167 6.52788 28.3228 6.83333 28.7 6.83333L 34.1086 6.83333C 34.1537 6.83743 34.196 6.83812 34.2405 6.83333L 34.8493 6.83333L 34.8493 0.683333C 34.8493 0.30545 34.5432 0 34.166 0C 33.7888 0 33.4827 0.30545 33.4827 0.683333L 33.4827 4.6535C 29.8227 1.64547 25.2703 0 20.5 0C 9.1963 0 0 9.1963 0 20.5C 6.79824e-16 20.8779 0.306133 21.1833 0.683333 21.1833Z"/>
<path id="path1_fill" fill-rule="evenodd" d="M 0 15.0332C 0 6.74365 6.7438 0 15.0333 0C 23.3228 0 30.0667 6.74365 30.0667 15.0332C 30.0667 23.3228 23.3228 30.0669 15.0333 30.0669C 6.7438 30.0669 0 23.3228 0 15.0332ZM 1.36667 15.0332C 1.36667 22.5693 7.49753 28.7002 15.0333 28.7002C 22.5691 28.7002 28.7 22.5693 28.7 15.0332C 28.7 7.49756 22.5691 1.3667 15.0333 1.3667C 7.49753 1.3667 1.36667 7.49756 1.36667 15.0332Z"/>
<path id="path2_fill" d="M 0.683333 2.73333C 1.06053 2.73333 1.36667 2.42788 1.36667 2.05L 1.36667 0.683333C 1.36667 0.30545 1.06053 0 0.683333 0C 0.306133 0 0 0.30545 0 0.683333L 0 2.05C 0 2.42788 0.306133 2.73333 0.683333 2.73333Z"/>
<path id="path3_fill" d="M 0.683333 0C 0.306133 0 0 0.30545 0 0.683333L 0 2.05C 0 2.42788 0.306133 2.73333 0.683333 2.73333C 1.06053 2.73333 1.36667 2.42788 1.36667 2.05L 1.36667 0.683333C 1.36667 0.30545 1.06053 0 0.683333 0Z"/>
<path id="path4_fill" d="M 0.683333 1.36667L 2.05 1.36667C 2.4272 1.36667 2.73333 1.06122 2.73333 0.683333C 2.73333 0.30545 2.4272 0 2.05 0L 0.683333 0C 0.306133 0 0 0.30545 0 0.683333C 0 1.06122 0.306133 1.36667 0.683333 1.36667Z"/>
<path id="path5_fill" d="M 2.05 0L 0.683333 0C 0.306133 0 0 0.30545 0 0.683333C 0 1.06122 0.306133 1.36667 0.683333 1.36667L 2.05 1.36667C 2.4272 1.36667 2.73333 1.06122 2.73333 0.683333C 2.73333 0.30545 2.4272 0 2.05 0Z"/>
<path id="path6_fill" fill-rule="evenodd" d="M 8.88351 0.683105L 8.88351 4.19727C 10.0588 4.50244 10.9335 5.56299 10.9335 6.8335C 10.9335 8.34082 9.70761 9.56689 8.20016 9.56689C 7.69452 9.56689 7.22711 9.41992 6.82053 9.1792L 1.16663 14.833C 1.03336 14.9663 0.858429 15.0332 0.683502 15.0332C 0.508575 15.0332 0.333649 14.9663 0.200378 14.833C -0.066803 14.5659 -0.066803 14.1343 0.200378 13.8667L 5.85428 8.21289C 5.61377 7.80664 5.46683 7.33887 5.46683 6.8335C 5.46683 5.56299 6.34149 4.50244 7.51685 4.19727L 7.51685 0.683105C 7.51685 0.305664 7.82297 0 8.20016 0C 8.57736 0 8.88351 0.305664 8.88351 0.683105ZM 6.8335 6.8335C 6.8335 7.5874 7.44644 8.2002 8.20016 8.2002C 8.95389 8.2002 9.56683 7.5874 9.56683 6.8335C 9.56683 6.07959 8.95389 5.4668 8.20016 5.4668C 7.44644 5.4668 6.8335 6.07959 6.8335 6.8335Z"/>
<path id="path7_fill" d="M 0.135481 0.278981C -0.0900192 0.578964 -0.0285192 1.00946 0.278981 1.23496C 0.395147 1.3238 0.538647 1.3648 0.682147 1.3648C 0.893981 1.3648 1.09898 1.27596 1.23565 1.09146C 1.45431 0.791481 1.39281 0.360981 1.09215 0.135481C 0.791481 -0.0900192 0.361664 -0.0285192 0.135481 0.278981Z"/>
<path id="path8_fill" d="M 1.24156 0.282639C 1.0229 -0.0173446 0.592398 -0.0931946 0.284898 0.126155C -0.0226019 0.351655 -0.0909352 0.775322 0.127731 1.08214C 0.264398 1.26732 0.469398 1.36914 0.688065 1.36914C 0.824731 1.36914 0.961398 1.32814 1.0844 1.23999C 1.39121 1.02064 1.46023 0.590139 1.24156 0.282639Z"/>
<path id="path9_fill" d="M 0.228389 0.170308C -0.0517772 0.422458 -0.0791105 0.853641 0.173723 1.13312C 0.303556 1.29029 0.494889 1.36614 0.686223 1.36614C 0.843389 1.36614 1.00739 1.31147 1.13722 1.19531C 1.41739 0.942474 1.44472 0.511974 1.19189 0.231808C 0.946573 -0.0551923 0.516073 -0.0756923 0.228389 0.170308Z"/>
<path id="path10_fill" d="M 1.14609 0.177415C 0.872761 -0.0754187 0.435427 -0.0549187 0.182594 0.219098C -0.0770728 0.498581 -0.0565728 0.929765 0.223594 1.18943C 0.353427 1.3056 0.517427 1.3671 0.681427 1.3671C 0.865927 1.3671 1.05043 1.29193 1.18709 1.14843C 1.43993 0.868265 1.42626 0.437765 1.14609 0.184931C 1.14609 0.177415 1.14609 0.177415 1.14609 0.177415Z"/>
<path id="path11_fill" d="M 1.2814 0.345235C 1.27457 0.345235 1.27457 0.345235 1.27457 0.345235C 1.09007 0.017235 0.673235 -0.0989317 0.345235 0.0924016C 0.017235 0.277585 -0.0989317 0.693735 0.0924016 1.02173C 0.215402 1.23972 0.447735 1.3634 0.686902 1.3634C 0.796235 1.3634 0.919235 1.33607 1.02173 1.27457C 1.34974 1.09007 1.4659 0.672552 1.2814 0.345235Z"/>
<path id="path12_fill" d="M 0.656459 1.36717C 0.670126 1.36717 0.676959 1.36717 0.683792 1.36717C 1.05279 1.36717 1.35346 1.07265 1.36713 0.71117C 1.38079 0.32782 1.08696 0.0134863 0.711126 0.000502917C 0.335292 -0.0138471 0.0141257 0.28067 0.000459069 0.656503C -0.0132076 1.03234 0.279942 1.3535 0.656459 1.36717Z"/>
<path id="path13_fill" d="M 0.755738 1.36459C 1.13157 1.32291 1.4049 0.988072 1.3639 0.612238C 1.3229 0.236405 0.988072 -0.0369283 0.612238 0.00407166C 0.236405 0.0382383 -0.0369283 0.379905 0.00407166 0.748905C 0.0382383 1.10424 0.338905 1.3639 0.680572 1.3639C 0.707905 1.36459 0.728405 1.36459 0.755738 1.36459Z"/>
<path id="path14_fill" d="M 0.822458 1.34928C 1.19146 1.27411 1.43062 0.911942 1.34862 0.542942C 1.27346 0.173942 0.911291 -0.0659082 0.542291 0.0160918C 0.173291 0.0912585 -0.0658752 0.454109 0.0161248 0.823108C 0.0776248 1.14428 0.364625 1.36294 0.678958 1.36294C 0.726108 1.36294 0.774625 1.36294 0.822458 1.34928Z"/>
<path id="path15_fill" d="M 1.30757 0.405565C 1.15723 0.0638984 0.754065 -0.0932682 0.405565 0.0570651C 0.0638984 0.207398 -0.0932682 0.610565 0.0570651 0.958382C 0.173232 1.21122 0.419232 1.36907 0.685732 1.36907C 0.774565 1.36907 0.870232 1.34857 0.959065 1.30688C 1.30005 1.15723 1.45722 0.754065 1.30757 0.405565Z"/>
<path id="path16_fill" d="M 1.33155 0.477383C 1.22222 0.115216 0.832716 -0.0829507 0.477383 0.0332159C 0.115216 0.149383 -0.0829507 0.532049 0.0332159 0.894899C 0.128883 1.1819 0.395383 1.36572 0.682383 1.36572C 0.750716 1.36572 0.825883 1.35888 0.894216 1.33838C 1.25023 1.22222 1.4484 0.832033 1.33155 0.477383Z"/>
<path id="path17_fill" d="M 0.697114 0.000137622C 0.321281 -0.00737904 0.00694754 0.293971 0.00011421 0.669121C -0.00671912 1.05247 0.293948 1.35929 0.669781 1.3668C 0.676614 1.3668 0.683448 1.3668 0.683448 1.3668C 1.05928 1.3668 1.35995 1.07229 1.36678 0.697138C 1.37293 0.321304 1.07295 0.00697096 0.697114 0.000137622Z"/>
<path id="path18_fill" d="M 0.144404 0.266613C -0.0879296 0.560447 -0.0332629 0.99163 0.26057 1.22328C 0.390404 1.31895 0.533904 1.36678 0.684237 1.36678C 0.882404 1.36678 1.0874 1.27795 1.22407 1.0996C 1.4564 0.805763 1.40174 0.375263 1.10107 0.143613C 0.800404 -0.0880369 0.376737 -0.0340535 0.144404 0.266613Z"/>
<path id="path19_fill" d="M 0.293992 0.119787C -0.0135081 0.331621 -0.0955081 0.761437 0.123159 1.06962C 0.252992 1.26095 0.464825 1.36345 0.683492 1.36345C 0.820159 1.36345 0.949992 1.32929 1.07299 1.24729C 1.38049 1.03545 1.46249 0.605637 1.24383 0.297454C 1.03199 -0.0168793 0.609009 -0.0920459 0.293992 0.119787Z"/>
<path id="path20_fill" d="M 0.239557 0.163822C -0.0474428 0.409822 -0.0816094 0.840322 0.164391 1.12732C 0.301057 1.28449 0.492391 1.36717 0.683724 1.36717C 0.840891 1.36717 0.998057 1.31251 1.12789 1.20317C 1.41489 0.957172 1.44906 0.526672 1.20306 0.239672C 0.956374 -0.0473282 0.526557 -0.0814949 0.239557 0.163822Z"/>
<path id="path21_fill" d="M 1.04602 0.101394C 0.724856 -0.0967724 0.30119 0.00572768 0.103023 0.320061C -0.0951436 0.641228 0.000523061 1.06489 0.32169 1.26306C 0.437856 1.33208 0.560856 1.36556 0.683856 1.36556C 0.909356 1.36556 1.13486 1.25623 1.26469 1.04371C 1.46354 0.723911 1.36787 0.299561 1.04602 0.101394Z"/>
<path id="path22_fill" d="M 0.19239 0.210612C -0.0741099 0.483262 -0.0604432 0.913761 0.21289 1.17411C 0.342723 1.30326 0.513557 1.36476 0.68439 1.36476C 0.862057 1.36476 1.04656 1.29643 1.17639 1.15293C 1.43606 0.879595 1.42922 0.449095 1.15589 0.189428C 0.882557 -0.0702385 0.451373 -0.0627218 0.19239 0.210612Z"/>
<path id="path23_fill" d="M 0.779433 0.00695602C 0.410433 -0.0470273 0.0619331 0.219473 0.0072664 0.588473C -0.0474003 0.964306 0.212266 1.30597 0.5881 1.36064C 0.622266 1.36747 0.656433 1.36747 0.683766 1.36747C 1.0186 1.36747 1.31243 1.12216 1.36027 0.780489C 1.41562 0.410806 1.15595 0.0616227 0.779433 0.00695602Z"/>
<path id="path24_fill" d="M 0.853029 0.0193627C 0.484029 -0.0694706 0.115029 0.156029 0.0193627 0.518196C -0.0694706 0.887196 0.156029 1.2562 0.518196 1.35186C 0.572863 1.36621 0.627529 1.37236 0.682196 1.37236C 0.989696 1.37236 1.26986 1.16053 1.34503 0.853029C 1.4407 0.484713 1.21451 0.115713 0.853029 0.0193627Z"/>
<path id="path25_fill" d="M 1.03542 0.0956151C 0.707416 -0.0950349 0.290582 0.0067817 0.0992491 0.335465C -0.0989175 0.656632 0.0104158 1.0803 0.331582 1.27163C 0.440916 1.33997 0.563916 1.3673 0.680082 1.3673C 0.912416 1.3673 1.13792 1.25113 1.26775 1.03247C 1.46592 0.710615 1.35727 0.293782 1.03542 0.0956151Z"/>
<path id="path26_fill" d="M 0.917092 0.0413102C 0.561759 -0.0878398 0.165425 0.0959768 0.0424253 0.45131C -0.0874081 0.807327 0.0902586 1.19683 0.445592 1.32598C 0.520759 1.35331 0.602759 1.36766 0.677925 1.36766C 0.958092 1.36766 1.22459 1.19683 1.32026 0.91666C 1.45078 0.55996 1.27243 0.171144 0.917092 0.0413102Z"/>
<path id="path27_fill" d="M 0.983655 0.0688712C 0.648822 -0.0944454 0.231988 0.0415379 0.0679883 0.383205C -0.0960117 0.724871 0.0474883 1.13555 0.382322 1.29887C 0.477988 1.3467 0.580488 1.36789 0.682988 1.36789C 0.935822 1.36789 1.18182 1.22439 1.29799 0.984538C 1.46199 0.642188 1.32532 0.232871 0.983655 0.0688712Z"/>
<path id="path28_fill" d="M 0.764053 0.00556462C 0.38822 -0.0422687 0.0533864 0.223548 0.00555308 0.600065C -0.0422803 0.975898 0.22422 1.31756 0.600053 1.35788L 0.600053 1.3654C 0.627386 1.3654 0.65472 1.3654 0.682053 1.3654C 1.02372 1.3654 1.31755 1.11256 1.35855 0.763381C 1.40639 0.388231 1.1392 0.0527146 0.764053 0.00556462Z"/>
<path id="path29_fill" d="M 0.905144 0.0382789C 0.549811 -0.0854044 0.160311 0.099779 0.0373111 0.461946C -0.0856889 0.817279 0.105644 1.20678 0.460978 1.32978C 0.536144 1.35028 0.611311 1.36395 0.686478 1.36395C 0.966644 1.36395 1.23314 1.18628 1.32881 0.906112C 1.45181 0.543946 1.26048 0.154446 0.905144 0.0382789Z"/>
<path id="path30_fill" d="M 0.836478 0.0168111C 0.467478 -0.0651889 0.105312 0.160311 0.0164784 0.529311C -0.0655216 0.898311 0.166812 1.26731 0.528978 1.34931C 0.583645 1.36298 0.631478 1.36298 0.686145 1.36298C 0.993645 1.36298 1.28065 1.15114 1.34898 0.836811C 1.43713 0.467811 1.20548 0.0988111 0.836478 0.0168111Z"/>
<path id="path31_fill" d="M 0.972414 0.0666715C 0.623914 -0.0973285 0.220748 0.0523215 0.063581 0.393988C -0.0935857 0.735655 0.0499143 1.14634 0.391581 1.30282C 0.487248 1.3445 0.582914 1.36432 0.678581 1.36432C 0.938248 1.36432 1.18425 1.22082 1.30041 0.968672C 1.45758 0.627005 1.31408 0.223155 0.972414 0.0666715Z"/>
<path id="path32_fill" d="M 0.558067 0.0116348C 0.189067 0.0799681 -0.0569333 0.442135 0.0114001 0.811135C 0.0729001 1.13913 0.366733 1.36532 0.6879 1.36532C 0.7289 1.36532 0.7699 1.36532 0.8109 1.3578C 1.1799 1.28332 1.4259 0.927301 1.35757 0.558301C 1.28923 0.182468 0.927067 -0.0566985 0.558067 0.0116348Z"/>
<path id="path33_fill" d="M 0.487241 0.0294491C 0.125074 0.131266 -0.0799257 0.514616 0.0294076 0.876099C 0.118241 1.17062 0.391574 1.36195 0.685408 1.36195C 0.746908 1.36195 0.815241 1.35443 0.883574 1.33462C 1.24574 1.22528 1.45074 0.841932 1.34141 0.480449C 1.23139 0.125116 0.849408 -0.0798843 0.487241 0.0294491Z"/>
<path id="path34_fill" d="M 0.420908 0.0519084C 0.0724084 0.195408 -0.0915916 0.598575 0.0519084 0.947758C 0.161242 1.20743 0.414075 1.36391 0.680575 1.36391C 0.769408 1.36391 0.858242 1.35024 0.947075 1.31676C 1.29558 1.16574 1.45958 0.769408 1.31608 0.420908C 1.16506 0.0724084 0.769408 -0.0915916 0.420908 0.0519084Z"/>
<path id="path35_fill" d="M 0.624655 0.00183728C 0.248821 0.0366873 -0.0313452 0.364004 0.00282146 0.739837C 0.0301548 1.09585 0.330821 1.3685 0.686155 1.3685C 0.699821 1.3685 0.720321 1.3685 0.740821 1.3685L 0.740821 1.36167C 1.11665 1.33434 1.39682 1.00634 1.36265 0.630504C 1.33532 0.255354 1.00117 -0.0254961 0.624655 0.00183728Z"/>
<path id="path36_fill" d="M 0.359141 0.0858078C 0.0243078 0.263474 -0.0986922 0.680308 0.0858078 1.00899C 0.208808 1.24132 0.441141 1.37047 0.687141 1.37047C 0.796474 1.37047 0.905808 1.34314 1.00831 1.28164C 1.34314 1.10397 1.46614 0.687141 1.28164 0.359141C 1.10466 0.0243078 0.687141 -0.0986922 0.359141 0.0858078Z"/>
</defs>
</svg>

<svg xmlns="http://www.w3.org/2000/svg" xmlns:xlink="http://www.w3.org/1999/xlink" width="41" height="41"><g fill="#fff" transform="translate(-423 -6145)"><use xlink:href="#A" x="423.003" y="6145"/><use xlink:href="#B" x="428.47" y="6150.47"/><use xlink:href="#C" x="442.82" y="6152.52"/><use xlink:href="#D" x="442.82" y="6175.75"/><use xlink:href="#E" x="453.753" y="6164.82"/><use xlink:href="#F" x="430.52" y="6164.82"/><use xlink:href="#G" x="435.303" y="6157.98"/><use xlink:href="#H" x="430.992" y="6180.71"/><use xlink:href="#I" x="426.702" y="6176.33"/><use xlink:href="#J" x="427.981" y="6177.94"/><use xlink:href="#K" x="429.415" y="6179.4"/><use xlink:href="#L" x="425.597" y="6174.61"/><use xlink:href="#M" x="462.623" y="6165.58"/><use xlink:href="#N" x="423.109" y="6166.86"/><use xlink:href="#O" x="423.425" y="6168.89"/><use xlink:href="#P" x="424.675" y="6172.78"/><use xlink:href="#Q" x="423.947" y="6170.87"/><use xlink:href="#R" x="442.437" y="6184.63"/><use xlink:href="#S" x="458.481" y="6176.95"/><use xlink:href="#T" x="454.026" y="6181.15"/><use xlink:href="#U" x="455.653" y="6179.9"/><use xlink:href="#V" x="459.649" y="6175.27"/><use xlink:href="#W" x="457.142" y="6178.5"/><use xlink:href="#X" x="462.437" y="6167.62"/><use xlink:href="#Y" x="462.043" y="6169.63"/><use xlink:href="#Z" x="432.696" y="6181.85"/><use xlink:href="#a" x="461.446" y="6171.59"/><use xlink:href="#b" x="460.642" y="6173.47"/><use xlink:href="#c" x="440.396" y="6184.48"/><use xlink:href="#d" x="436.407" y="6183.57"/><use xlink:href="#e" x="438.376" y="6184.13"/><use xlink:href="#f" x="434.509" y="6182.8"/><use xlink:href="#g" x="446.512" y="6184.29"/><use xlink:href="#h" x="448.503" y="6183.8"/><use xlink:href="#i" x="450.435" y="6183.11"/><use xlink:href="#j" x="444.484" y="6184.56"/><use xlink:href="#k" x="452.28" y="6182.22"/></g><defs><path id="A" d="M.683 21.183c.377 0 .683-.305.683-.683A19.16 19.16 0 0 1 20.5 1.367c4.323 0 8.458 1.445 11.823 4.1H28.7c-.377 0-.683.305-.683.683s.306.683.683.683h5.41c.045.004.087.005.132 0h.61V.683c0-.378-.306-.683-.683-.683s-.683.305-.683.683v3.97C29.823 1.645 25.27 0 20.5 0 9.196 0 0 9.196 0 20.5c0 .378.306.683.683.683z"/><path id="B" d="M0 15.033C0 6.744 6.744 0 15.033 0s15.033 6.744 15.033 15.033-6.744 15.034-15.033 15.034S0 23.323 0 15.033zm1.367 0c0 7.536 6.13 13.667 13.667 13.667S28.7 22.57 28.7 15.033 22.57 1.367 15.033 1.367 1.367 7.498 1.367 15.033z" fill-rule="evenodd"/><path id="C" d="M.683 2.733c.377 0 .683-.305.683-.683V.683C1.367.305 1.06 0 .683 0S0 .305 0 .683V2.05c0 .378.306.683.683.683z"/><path id="D" d="M.683 0C.306 0 0 .305 0 .683V2.05c0 .378.306.683.683.683s.683-.305.683-.683V.683C1.367.305 1.06 0 .683 0z"/><path id="E" d="M.683 1.367H2.05c.377 0 .683-.305.683-.683S2.427 0 2.05 0H.683C.306 0 0 .305 0 .683s.306.683.683.683z"/><path id="F" d="M2.05 0H.683C.306 0 0 .305 0 .683s.306.683.683.683H2.05c.377 0 .683-.305.683-.683S2.427 0 2.05 0z"/><path id="G" d="M8.884.683v3.514a2.73 2.73 0 0 1 2.05 2.636c0 1.507-1.226 2.733-2.733 2.733-.506 0-.973-.147-1.38-.388l-5.654 5.654a.68.68 0 0 1-.483.2.68.68 0 0 1-.483-.2c-.267-.267-.267-.7 0-.966l5.654-5.654c-.24-.406-.387-.874-.387-1.38a2.73 2.73 0 0 1 2.05-2.636V.683C7.517.306 7.823 0 8.2 0s.683.306.683.683zm-2.05 6.15A1.37 1.37 0 0 0 8.2 8.2a1.37 1.37 0 0 0 1.367-1.367A1.37 1.37 0 0 0 8.2 5.467a1.37 1.37 0 0 0-1.367 1.367z" fill-rule="evenodd"/><path id="H" d="M.135.28a.68.68 0 0 0 .144.956.66.66 0 0 0 .403.13c.212 0 .417-.09.554-.273.22-.3.157-.73-.143-.956a.68.68 0 0 0-.957.144z"/><path id="I" d="M1.242.283c-.22-.3-.65-.376-.957-.156-.307.226-.376.65-.157.956a.69.69 0 0 0 .56.287c.137 0 .273-.04.396-.13a.69.69 0 0 0 .157-.957z"/><path id="J" d="M.228.17a.68.68 0 0 0-.055.963.66.66 0 0 0 .513.233c.157 0 .32-.055.45-.17.28-.253.308-.683.055-.964C.947-.055.516-.076.228.17z"/><path id="K" d="M1.146.177C.873-.075.435-.055.183.22c-.26.28-.24.71.04.97a.69.69 0 0 0 .458.178.7.7 0 0 0 .506-.219.68.68 0 0 0-.041-.963z"/><path id="L" d="M1.28.345C1.1.017.673-.1.345.092c-.328.185-.444.6-.253.93a.68.68 0 0 0 .595.342c.11 0 .232-.027.335-.09.328-.184.444-.602.26-.93z"/><path id="M" d="M.656 1.367h.027c.37 0 .67-.295.683-.656A.68.68 0 0 0 .711.001C.335-.014.014.28 0 .657s.28.697.656.71z"/><path id="N" d="M.756 1.365c.376-.042.65-.377.608-.752S.988-.037.612.004C.236.038-.037.38.004.75a.68.68 0 0 0 .677.615l.075.001z"/><path id="O" d="M.822 1.35c.37-.075.608-.437.526-.806C1.273.174.91-.066.542.016.173.09-.066.454.016.823c.06.32.35.54.663.54.047 0 .096 0 .144-.014z"/><path id="P" d="M1.308.406C1.157.064.754-.093.406.057c-.342.15-.5.553-.348.9.116.253.362.41.63.41a.65.65 0 0 0 .273-.062c.34-.15.498-.553.35-.9z"/><path id="Q" d="M1.332.477c-.11-.362-.5-.56-.854-.444-.362.116-.56.5-.444.862.096.287.362.47.65.47a.75.75 0 0 0 .212-.027c.356-.116.554-.506.437-.86z"/><path id="R" d="M.697 0C.32-.007.007.294 0 .67a.68.68 0 0 0 .67.698.68.68 0 0 0 .697-.67C1.373.32 1.073.007.697 0z"/><path id="S" d="M.144.267c-.232.294-.178.725.116.957.13.096.273.144.424.144a.68.68 0 0 0 .54-.267C1.456.806 1.402.375 1.1.144a.68.68 0 0 0-.957.123z"/><path id="T" d="M.294.12a.68.68 0 0 0-.171.95c.13.19.342.294.56.294.137 0 .266-.034.39-.116a.68.68 0 0 0 .171-.95.68.68 0 0 0-.95-.178z"/><path id="U" d="M.24.164C-.047.4-.082.84.164 1.127a.69.69 0 0 0 .519.24.69.69 0 0 0 .444-.164c.287-.246.32-.676.075-.963S.527-.08.24.164z"/><path id="V" d="M1.046.1A.69.69 0 0 0 .103.32c-.198.32-.102.745.22.943.116.07.24.103.362.103.226 0 .45-.11.58-.322.2-.32.103-.744-.22-.942z"/><path id="W" d="M.192.21c-.266.273-.253.703.02.963.13.13.3.19.472.19.178 0 .362-.068.492-.212a.68.68 0 0 0-.02-.964.68.68 0 0 0-.963.021z"/><path id="X" d="M.78.007a.69.69 0 0 0-.772.582.68.68 0 0 0 .581.772c.034.007.068.007.096.007.335 0 .63-.245.677-.587.055-.37-.204-.72-.58-.774z"/><path id="Y" d="M.853.02C.484-.07.115.156.02.518c-.09.37.137.738.5.834a.64.64 0 0 0 .164.02c.308 0 .588-.212.663-.52C1.44.485 1.215.116.853.02z"/><path id="Z" d="M1.035.096a.68.68 0 0 0-.936.24.68.68 0 0 0 .232.936c.11.068.232.096.35.096a.68.68 0 0 0 .588-.335c.198-.322.1-.74-.232-.937z"/><path id="a" d="M.917.04a.68.68 0 0 0-.875.41c-.13.356.048.746.403.875.075.027.157.042.232.042.28 0 .547-.17.642-.45C1.45.56 1.272.17.917.04z"/><path id="b" d="M.984.07C.65-.094.232.042.068.383a.69.69 0 0 0 .314.916.67.67 0 0 0 .301.069c.253 0 .5-.143.615-.383C1.462.642 1.325.233.984.07z"/><path id="c" d="M.764.006C.388-.042.053.224.006.6s.22.717.594.758v.008h.082a.68.68 0 0 0 .676-.602C1.406.388 1.14.053.764.006z"/><path id="d" d="M.905.038a.68.68 0 0 0-.868.424c-.123.355.068.745.424.868a.86.86 0 0 0 .226.034.68.68 0 0 0 .642-.458.68.68 0 0 0-.424-.868z"/><path id="e" d="M.836.017C.467-.065.105.16.016.53a.69.69 0 0 0 .512.82.61.61 0 0 0 .157.014.68.68 0 0 0 .663-.526.68.68 0 0 0-.513-.82z"/><path id="f" d="M.972.067C.624-.097.22.052.064.394s-.014.752.328.91a.71.71 0 0 0 .287.061A.68.68 0 0 0 1.3.969C1.458.627 1.314.223.972.067z"/><path id="g" d="M.558.012a.69.69 0 0 0-.547.8c.062.328.355.554.676.554.04 0 .082 0 .123-.008.37-.074.615-.43.547-.8C1.29.182.927-.057.558.012z"/><path id="h" d="M.487.03C.125.13-.08.515.03.876c.09.295.362.486.656.486.062 0 .13-.008.198-.027.362-.11.567-.493.458-.854C1.23.125.85-.08.487.03z"/><path id="i" d="M.42.052C.072.195-.092.6.052.948a.68.68 0 0 0 .629.416c.09 0 .178-.014.266-.047a.69.69 0 0 0 .369-.896.69.69 0 0 0-.895-.369z"/><path id="j" d="M.625.002C.25.037-.03.364.003.74c.027.356.328.63.683.63H.74v-.007a.67.67 0 0 0 .622-.731C1.335.255 1-.025.625.002z"/><path id="k" d="M.36.086C.024.263-.1.68.086 1.01c.123.232.355.36.6.36.11 0 .22-.027.32-.09.335-.178.458-.594.273-.922A.67.67 0 0 0 .359.086z"/></defs></svg>
